svg/fluentui-system-icons/ic_fluent_accessibility_checkmark_48_filled.svg

<svg width="48" height="48" viewBox="0 0 48 48" fill="none" xmlns="http://www.w3.org/2000/svg">
<path d="M24.0012 14.5C26.9007 14.5 29.2512 12.1495 29.2512 9.25C29.2512 6.35051 26.9007 4 24.0012 4C21.1017 4 18.7512 6.35051 18.7512 9.25C18.7512 12.1495 21.1017 14.5 24.0012 14.5ZM11.7095 10.2575C9.50352 9.45467 7.06432 10.5919 6.26141 12.7976C5.45849 15.0032 6.59591 17.4421 8.8019 18.2449L16.6739 21.1096C16.8714 21.1815 17.0029 21.3692 17.0029 21.5794L17.0033 26.0179C17.0034 26.3708 16.9354 26.7206 16.8031 27.0479L12.3127 38.1602C11.4333 40.3365 12.4849 42.8135 14.6616 43.6928C16.8382 44.5721 19.3156 43.5207 20.195 41.3444L21.4236 38.304C21.1472 37.249 21 36.1417 21 35C21 28.8511 25.269 23.6993 31.0048 22.3467L31.0049 21.5794C31.0049 21.3692 31.1364 21.1815 31.3339 21.1096L39.2059 18.2449C41.4119 17.4421 42.5493 15.0032 41.7464 12.7976C40.9435 10.5919 38.5043 9.45467 36.2983 10.2575L32.4863 11.6447C31.6665 11.943 31.0644 12.5406 30.681 13.1887C29.3299 15.4727 26.8446 16.9999 24.0039 16.9999C21.1632 16.9999 18.6779 15.4727 17.3268 13.1887C16.9434 12.5406 16.3412 11.943 15.5214 11.6447L11.7095 10.2575ZM45 35C45 41.0751 40.0751 46 34 46C27.9249 46 23 41.0751 23 35C23 28.9249 27.9249 24 34 24C40.0751 24 45 28.9249 45 35ZM40.7071 30.2929C40.3166 29.9024 39.6834 29.9024 39.2929 30.2929L32 37.5858L28.7071 34.2929C28.3166 33.9024 27.6834 33.9024 27.2929 34.2929C26.9024 34.6834 26.9024 35.3166 27.2929 35.7071L31.2929 39.7071C31.6834 40.0976 32.3166 40.0976 32.7071 39.7071L40.7071 31.7071C41.0976 31.3166 41.0976 30.6834 40.7071 30.2929Z" fill="#212121"/>
</svg>

<svg xmlns="http://www.w3.org/2000/svg" width="48" height="48"><path d="M24.001 14.5a5.25 5.25 0 1 0 0-10.5 5.25 5.25 0 0 0 0 10.5ZM11.71 10.258a4.25 4.25 0 0 0-2.907 7.987l7.872 2.865a.5.5 0 0 1 .329.47v4.438c0 .353-.068.703-.2 1.03l-4.49 11.112a4.25 4.25 0 1 0 7.882 3.184l1.229-3.04A13.021 13.021 0 0 1 21 35c0-6.149 4.269-11.3 10.005-12.653v-.768a.5.5 0 0 1 .329-.47l7.872-2.864a4.25 4.25 0 1 0-2.908-7.988l-3.812 1.388c-.82.298-1.422.896-1.805 1.544a7.747 7.747 0 0 1-6.677 3.81 7.747 7.747 0 0 1-6.677-3.81c-.384-.648-.986-1.246-1.806-1.544l-3.812-1.387ZM45 35c0 6.075-4.925 11-11 11s-11-4.925-11-11 4.925-11 11-11 11 4.925 11 11Zm-4.293-4.707a1 1 0 0 0-1.414 0L32 37.586l-3.293-3.293a1 1 0 0 0-1.414 1.414l4 4a1 1 0 0 0 1.414 0l8-8a1 1 0 0 0 0-1.414Z"/></svg>
